static/images/immudb/runs-on/dot-net.svg

<svg width="150" height="56" viewBox="0 0 150 56" fill="none" xmlns="http://www.w3.org/2000/svg">
<path d="M7.22803 48.3013C6.84259 47.8918 6.37885 47.5666 5.8609 47.3437C5.34296 47.1149 4.7949 47.0065 4.22878 47.0065C3.66265 46.9944 3.11459 47.1149 2.59665 47.3317C2.0787 47.5605 1.61496 47.8858 1.22952 48.2893C0.832025 48.6868 0.518849 49.1505 0.320103 49.6685C0.109312 50.1924 0.000904903 50.7465 0.000904903 51.3006C-0.0111403 51.8667 0.0972666 52.4148 0.314081 52.9327C0.530894 53.4507 0.84407 53.9144 1.23554 54.3119C2.01246 55.137 3.10255 55.5947 4.2348 55.5706C5.36705 55.5766 6.45112 55.1189 7.23406 54.3119C7.64359 53.9264 7.95677 53.4627 8.16756 52.9448C8.38438 52.4268 8.49278 51.8787 8.49278 51.3126C8.49278 50.7465 8.38438 50.1984 8.16756 49.6805C7.94473 49.1505 7.63155 48.6807 7.22803 48.3013ZM57.4445 38.5567C57.3843 41.2428 57.5168 43.947 57.83 46.621H57.6854C57.3482 45.9585 56.6074 44.7359 55.4631 42.9472L28.1084 0H19.8032V54.8298H26.1872V15.189C26.2595 12.6836 26.1511 10.1722 25.8861 7.66678H26.127C26.5847 8.86528 27.1689 10.0216 27.8675 11.0997L55.969 54.8298H63.8285V0H57.4445V38.5567ZM107.113 48.8012H84.5523V29.8059H104.294V24.0242H84.5523V5.80579H105.734V0H78.0117V54.8298H107.077L107.113 48.8012ZM111.997 0V5.80579H127.716V54.8238H134.1V5.80579H150V0H111.997Z" fill="#621EE5"/>
</svg>

<svg xmlns="http://www.w3.org/2000/svg" width="150" height="56" fill="none" xmlns:v="https://vecta.io/nano"><path d="M7.228 48.301a4.1 4.1 0 0 0-1.367-.958c-.518-.229-1.066-.337-1.632-.337a3.99 3.99 0 0 0-1.632.325 4.28 4.28 0 0 0-1.367.958 3.96 3.96 0 0 0-.909 1.379c-.211.524-.319 1.078-.319 1.632a3.98 3.98 0 0 0 .313 1.632c.217.518.53.982.921 1.379.777.825 1.867 1.283 2.999 1.259a4.15 4.15 0 0 0 2.999-1.259 3.87 3.87 0 0 0 .933-1.367 4.2 4.2 0 0 0 .325-1.632 4.2 4.2 0 0 0-.325-1.632c-.223-.53-.536-1-.94-1.379zm50.216-9.745c-.06 2.686.072 5.39.386 8.064h-.145c-.337-.663-1.078-1.885-2.222-3.674L28.108 0h-8.305v54.83h6.384V15.189c.072-2.505-.036-5.017-.301-7.522h.241c.458 1.199 1.042 2.355 1.741 3.433l28.102 43.73h7.859V0h-6.384v38.557zm49.669 10.245H84.552V29.806h19.742v-5.782H84.552V5.806h21.182V0H78.012v54.83h29.065l.036-6.029zM111.997 0v5.806h15.719v49.018h6.384V5.806H150V0h-38.003z" fill="#621ee5"/></svg>
